resources/icons/16px/cube-remove.svg

<?xml version="1.0" encoding="UTF-8"?>
<svg width="16px" height="16px" viewBox="0 0 16 16" version="1.1" xmlns="http://www.w3.org/2000/svg" xmlns:xlink="http://www.w3.org/1999/xlink">
    <!-- Generator: Sketch 52.3 (67297) - http://www.bohemiancoding.com/sketch -->
    <title>Artboard</title>
    <desc>Created with Sketch.</desc>
    <g id="Artboard" stroke="none" stroke-width="1" fill="none" fill-rule="evenodd">
        <path d="M10.3645067,5.93255949 L8,7.41037618 L1.80625275,3.53928415 L7.50386106,0.283507965 C7.81129373,0.107832154 8.18870627,0.107832154 8.49613894,0.283507965 L9.13604922,0.649170982 C8.44387329,1.19872806 8,2.04752795 8,3 C8,4.43880783 9.01288495,5.64104371 10.3645067,5.93255949 Z M15,6 L15,11.4196775 C15,11.7785343 14.8077139,12.1098778 14.4961389,12.2879206 L8.5,15.7142857 L8.5,8.27712382 L12.1433981,6 L15,6 Z M1.05620201,4.24975008 L7.5,8.27712382 L7.5,15.7142857 L1.50386106,12.2879206 C1.19228606,12.1098778 1,11.7785343 1,11.4196775 L1,4.58032254 C1,4.46598225 1.01952108,4.35443515 1.05620201,4.24975008 Z M11,2 L15,2 C15.5522847,2 16,2.44771525 16,3 C16,3.55228475 15.5522847,4 15,4 L11,4 C10.4477153,4 10,3.55228475 10,3 C10,2.44771525 10.4477153,2 11,2 Z" id="Combined-Shape" fill="#000000" fill-rule="nonzero"></path>
    </g>
</svg>

<svg xmlns="http://www.w3.org/2000/svg" viewBox="0 0 16 16">
  <path d="M10.365 5.933 8 7.41 1.806 3.54 7.504.283a1 1 0 0 1 .992 0l.64.365a3.001 3.001 0 0 0 1.228 5.283M15 6v5.42a1 1 0 0 1-.504.868L8.5 15.714V8.277L12.143 6zM1.056 4.25 7.5 8.277v7.437l-5.996-3.426A1 1 0 0 1 1 11.42V4.58a1 1 0 0 1 .056-.33M11 2h4a1 1 0 0 1 0 2h-4a1 1 0 0 1 0-2"/>
</svg>
